X:107
%%vocalfont Baskerville10Pro 11
%%pagewidth 7.5in
T:O Mistress mine!
M:3/4
L:1/8
K:F
%%score 1 2
V:1 clef-treble
V:2 clef-bass octave=-1
V:1
[A,F]2AA[CG]2&x2F2x2|[A,F]2A=B cc&x2F2[EG]2|(F>G) AA [CG]2&x2F2x2|[A,F]2A=B cc&x2F2[EG]2|
w:O mist-ress mine, where are you roam-ing? O* mist-ress mine, where are you roam-ing?
V:2
F4E2|D4C_B,|A,2F2E2|D4C2|
V:1
"^rall."[_EGc]2[DAd][DBd][D^Fd]2|[C=FA]2[CGc][CAc][CEc]2|"^a tempo."[Fc]2([FBd][Fc])[FAf]2|[EA]2[DG][CF][B,EB]2|[CFA]2([CG][A,F]) [CFc]c|
w:O stay and hear; your true love's coming, That can* sing both high and low: Trip no* furth-er
V:2
c2^FGD2|=F2=EFC2|A2BAd2|c2BAG2|F2EDA,2|
V:1
F>G ([CFA][B,EG])F2&D2x4|[CFc]2([FBd][Fc])[FAf]2|[EA]2[DG][CF][B,EB]2|[CFA]2([CG][A,F]) cc&x4[CF]2|(F>G [CFA])[B,EG][A,F]2||
w:pret-ty sweet-*ing, Jour-neys* end in lovers'* meeting, Ev'-ry* wise man's son** doth know.
V:2
B,2C2AB&x4FG|A2BAd2|c2BAG2|F2EDA,2|B,2C2F,2||

